src/assets/img/svg_sources/icon-service-systems.svg

<svg width="42" height="42" viewBox="0 0 42 42" fill="none" xmlns="http://www.w3.org/2000/svg"><path fill-rule="evenodd" clip-rule="evenodd" d="M1 1h12v12H1V1zm2 2h8v8H3V3zm12 26h26v12H15V29zm2 2h22v8H17v-8z" fill="#C7A21E"/><path fill-rule="evenodd" clip-rule="evenodd" d="M15 15H1v26h12V27h14V1H15v14zm2-12v14H3v22h8V25h14V3h-8zm12-2h12v26H29V1zm2 2h8v22h-8V3z" fill="#C7A21E"/></svg>

<svg width="42" height="42" viewBox="0 0 42 42" fill="none" xmlns="http://www.w3.org/2000/svg">
<path fill-rule="evenodd" clip-rule="evenodd" d="M1 1H13V13H1V1ZM3 3H11V11H3V3Z" fill="#C7A21E"/>
<path fill-rule="evenodd" clip-rule="evenodd" d="M15 29H41V41H15V29ZM17 31H39V39H17V31Z" fill="#C7A21E"/>
<path fill-rule="evenodd" clip-rule="evenodd" d="M15 15H1V41H13V27H27V1H15V15ZM17 3V17H3V39H11V25H25V3H17Z" fill="#C7A21E"/>
<path fill-rule="evenodd" clip-rule="evenodd" d="M29 1H41V27H29V1ZM31 3H39V25H31V3Z" fill="#C7A21E"/>
</svg>
